!!!OTL: Sanctus
**kern
*staff1
=1-
*clefF4
*k[]
*met(c|)
*M2/2
0D
=2
1AA
1D
=3
1D
0BB
0AA
=4
1D
1C
=5
1F
1D
=6
1C
0D
1BB
0AA
0D
=7
!!linebreak:original
0D
1AA
0D
1D
=8
1BB
0AA
1D
1C
1F
1D
=9
1C
1D
1D
1BB
0AA
=10
!LO:TX:Y=-41:t=P
0D
=11
!!linebreak:original
0D
=12
0AA
=13
1D
1BB
1AA
1D
1BB
=14
0AA
=15
0D
=16
1D
1C
=17
0D
=18
0BB
=19
0AA
=20
1D
1C
1F
1D
1C
=21
0D
=22
1BB
1AA
=23
0D
=24
!!linebreak:original
0D
=25
0AA
=26
1A
1C
1AA
1D
1C
=27
0AA
=28
0D
=29
0AA
=30
0D
=31
1D
1D
=32
1BB
1AA
=33
1D
1C
=34
1F
1D
1C
0D
1BB
=35
0AA
=36
0D
=37
!!linebreak:original
0D
=38
0AA
=39
1AA
1BB
=40
1AA
1D
=41
1BB
0AA
=42
0D
=43
1D
1C
=44
1D
1D
=45
1BB
1BB
=46
0AA
=47
1D
1C
=48
1F
1D
=49
1C
1D
=50
1D
1BB
=51
0AA
=52
0D
=53
!!pagebreak:original
1D
1C
=54
1F
1D
=55
1C
0D
=56
1BB
0AA
=57
0D
=58
0D
=59
0AA
=60
1AA
1BB-
=61
1AA
1D
=62
1BB
0AA
!!linebreak:original
=63
0D
=64
1D
1C
=65
0D
=66
0BB
=67
0AA
=68
1D
1C
=69
1F
1D
=70
1C
0D
=71
1BB
0AA
=72
0D
!!linebreak:original
=73
0D
=74
0AA
=75
1AA
1BB
=76
1AA
1D
=77
1BB
0AA
=78
0D
=79
1D
1C
=80
0D
=81
0BB
=82
0AA
=83
1D
1C
=84
1F
1D
=85
1C
0D
=86
1BB
0AA
=87
0D
=88
!!linebreak:original
0D
=89
1AA
0D
=90
1D
1BB
=91
!LO:TX:Y=-40:t=P
0AA
=92
1D
1C
=93
1F
1D
=94
1C
0D
=95
1BB
0AA
=96
!LO:TX:Y=-41:t=P
0D
!!linebreak:original
=97
0D
=98
0AA
=99
1AA
1BB
=100
1AA
1D
=101
1BB
0AA
=102
!LO:TX:Y=-37:t=P
0D
=103
1D
1C
=104
0D
=105
0BB
=106
0AA
=107
1D
1C
=108
1F
1D
=109
1C
0D
=110
1BB
0AA
=111
0D
!!linebreak:original
=112
0D
=113
0AA
=114
1A
1C
=115
1AA
1D
=116
1BB
0AA
=117
!LO:TX:Y=-40:t=P
0D
=118
1AA
0D
=119
1D
1BB
=120
!LO:TX:Y=-37:t=P
0AA
=121
!!pagebreak:original
1D
1C
=122
1F
1D
=123
1C
0D
=124
1BB
0AA
=125
0D
=126
0D
=127
0AA
=128
1AA
1C
=129
1AA
1D
=130
1BB
0AA;
==
*-
!!title: @{OTL}, @{GTL}, ed. @{ENC}
!!!pag:
!!!GTL: Hymnbook D
!!!EFL: 
!!!YEM: Creative Commons CC/BY/NC/SA 4.0
!!!ENC: Marcin Konik
!!!END: 2015-0m-dd
!!!EED: Marcin Konik
!!!EEV: 
!!!ONB: Encoded in vim by Marcin Konik
!!!CharacterEncoding: utf-8
!!!RDF**kern: l=long note in original notation
!!!RDF**kern: i=editorial accidental
!!muse2ps: z14jc180F
!!!COM: Anonim
!!!CDT: [?]
!!!TXO: Polish
!!!ODT: 
!!!GTL: Hymnbook D
!!!ARL: Opactwo św. Wojciecha, Staniątki 
!!!voices:	1
